resources/haticons/SVG/no_transfer.svg

<!-- Generated by IcoMoon.io -->
<svg version="1.1" xmlns="http://www.w3.org/2000/svg" width="24" height="24" viewBox="0 0 24 24">
<title>no_transfer</title>
<path d="M21.188 21.188l-18.375-18.375-1.406 1.406 2.578 2.625v9.141q0 0.656 0.281 1.242t0.75 1.008v1.781q0 0.375 0.281 0.68t0.703 0.305h0.984q0.422 0 0.727-0.305t0.305-0.68v-1.031h7.969v1.031q0 0.375 0.305 0.68t0.727 0.305h1.055t0.070-0.047l1.641 1.641zM7.5 17.016q-0.609 0-1.055-0.445t-0.445-1.055q0-0.656 0.445-1.078t1.055-0.422 1.055 0.422 0.445 1.078q0 0.609-0.445 1.055t-1.055 0.445zM6 11.016v-2.203l2.156 2.203h-2.156zM8.813 6l-3.047-3.047q1.125-0.609 2.742-0.773t3.492-0.164q1.641 0 3.094 0.141t2.555 0.539 1.734 1.195 0.633 2.109v9.984q0 0.281-0.070 0.516t-0.117 0.469l-6-5.953h4.172v-5.016h-9.188z"></path>
</svg>

<svg xmlns="http://www.w3.org/2000/svg" width="24" height="24"><path d="M21.188 21.188L2.813 2.813 1.407 4.219l2.578 2.625v9.141q0 .656.281 1.242t.75 1.008v1.781q0 .375.281.68t.703.305h.984q.422 0 .727-.305t.305-.68v-1.031h7.969v1.031q0 .375.305.68t.727.305h1.055l.07-.047 1.641 1.641zM7.5 17.016q-.609 0-1.055-.445T6 15.516q0-.656.445-1.078t1.055-.422 1.055.422T9 15.516q0 .609-.445 1.055t-1.055.445zm-1.5-6V8.813l2.156 2.203H6zM8.813 6L5.766 2.953q1.125-.609 2.742-.773T12 2.016q1.641 0 3.094.141t2.555.539 1.734 1.195T20.016 6v9.984q0 .281-.07.516t-.117.469l-6-5.953h4.172V6H8.813z"/></svg>
